src/Assets/icons/social-pinterest.svg

<svg class="svg-icon" viewBox="0 0 76 76" xmlns="http://www.w3.org/2000/svg" xmlns:xlink="http://www.w3.org/1999/xlink" version="1.1" baseProfile="full" enable-background="new 0 0 76.00 76.00" xml:space="preserve">
	<path fill="currentColor" fill-opacity="1" stroke-linejoin="round" d="M 38.0006,18.9995C 27.5075,18.9995 19,27.5062 19,37.9999C 19,45.78 23.6784,52.4637 30.3731,55.4024C 30.3196,54.0756 30.3635,52.483 30.7038,51.0394C 31.0691,49.4969 33.1486,40.6862 33.1486,40.6862C 33.1486,40.6862 32.5415,39.4732 32.5415,37.6799C 32.5415,34.8644 34.1736,32.7614 36.2059,32.7614C 37.9341,32.7614 38.7691,34.0596 38.7691,35.6139C 38.7691,37.3513 37.661,39.95 37.0911,42.3569C 36.6151,44.3724 38.1017,46.0163 40.0901,46.0163C 43.6899,46.0163 46.1145,41.3927 46.1145,35.9144C 46.1145,31.7502 43.3098,28.6333 38.2085,28.6333C 32.445,28.6333 28.8543,32.9314 28.8543,37.7324C 28.8543,39.3877 29.3424,40.5552 30.1069,41.459C 30.4584,41.8742 30.5073,42.0414 30.38,42.5181C 30.2889,42.8676 30.0796,43.7093 29.9929,44.0429C 29.8664,44.524 29.4766,44.696 29.0416,44.5183C 26.387,43.4346 25.1505,40.5275 25.1505,37.2595C 25.1505,31.8622 29.7025,25.3903 38.7299,25.3903C 45.9841,25.3903 50.7585,30.6397 50.7585,36.2745C 50.7585,43.728 46.6148,49.2964 40.5067,49.2964C 38.4553,49.2964 36.5257,48.1874 35.8648,46.9281C 35.8648,46.9281 34.7617,51.3058 34.528,52.1511C 34.1253,53.6161 33.3367,55.0801 32.6157,56.2213C 34.3246,56.7258 36.1297,57.0005 38.0006,57.0005C 48.4929,57.0005 57,48.4937 57,37.9999C 57,27.5062 48.4929,18.9995 38.0006,18.9995 Z "/>
</svg>

<svg class="svg-icon" viewBox="0 0 76 76" xmlns="http://www.w3.org/2000/svg" baseProfile="full" xml:space="preserve"><path fill="currentColor" d="M38 19c-10.492 0-19 8.506-19 19 0 7.78 4.678 14.464 11.373 17.402-.053-1.326-.01-2.919.33-4.363.366-1.542 2.446-10.353 2.446-10.353s-.608-1.213-.608-3.006c0-2.816 1.633-4.919 3.665-4.919 1.728 0 2.563 1.299 2.563 2.853 0 1.737-1.108 4.336-1.678 6.743-.476 2.015 1.01 3.66 3 3.66 3.599 0 6.023-4.624 6.023-10.103 0-4.164-2.804-7.28-7.905-7.28-5.764 0-9.355 4.297-9.355 9.098 0 1.656.488 2.823 1.253 3.727.351.415.4.582.273 1.06-.091.349-.3 1.19-.387 1.524-.127.481-.516.653-.951.475-2.655-1.083-3.892-3.99-3.892-7.258 0-5.398 4.553-11.87 13.58-11.87 7.254 0 12.029 5.25 12.029 10.885 0 7.453-4.144 13.021-10.252 13.021-2.052 0-3.981-1.109-4.642-2.368 0 0-1.103 4.378-1.337 5.223-.403 1.465-1.191 2.93-1.912 4.07 1.709.505 3.514.78 5.385.78C48.493 57 57 48.494 57 38c0-10.494-8.507-19-19-19Z"/></svg>
